offer/images/growth.svg

<svg height="54" viewBox="0 0 51 54" width="51" xmlns="http://www.w3.org/2000/svg"><g fill="none" fill-rule="evenodd"><path d="m42.1709677 38.6064516v-16.6709677c0-.4845515.392868-.8774194.8774194-.8774194h2.6322581v3.5096774l5.2645161-6.1419354-5.2645161-6.1419355v3.5096774h-6.1419355c-1.9382057 0-3.5096774 1.5714718-3.5096774 3.5096774v19.3032258" fill="#57b7eb"/><path d="m50.1907006 19.3032258h-5.3874748c-2.7217994.0008568-5.3532006-.9772429-7.4143649-2.7552168-.8525706.6606352-1.3538306 1.676865-1.3598286 2.7552168v19.3032258h6.1419354v-16.6709677c0-.4845515.392868-.8774194.8774194-.8774194h2.6322581v3.5096774z" fill="#4891d3"/><path d="m8.82903226 38.6064516v-16.6709677c0-.4845515-.39286792-.8774194-.87741936-.8774194h-2.63225806v3.5096774l-5.26451613-6.1419354 5.26451613-6.1419355v3.5096774h6.14193546c1.9382057 0 3.5096774 1.5714718 3.5096774 3.5096774v19.3032258" fill="#57b7eb"/><path d="m1.80967742 16.3989163-1.75483871 2.0268902 5.26451613 6.1419354v-3.5096774h2.63225806c.48455144 0 .87741936.3928679.87741936.8774194v16.6709677h6.14193544v-19.3032258h-5.26451609c-2.89317033-.0012853-5.69208675-1.0307964-7.89677419-2.9043095z" fill="#4891d3"/><path d="m39.5979933 39.483871c0 7.7860912-6.311902 14.0979933-14.0979933 14.0979933s-14.0979933-6.3119021-14.0979933-14.0979933c0-7.7860913 6.311902-14.0979934 14.0979933-14.0979934s14.0979933 6.3119021 14.0979933 14.0979934z" fill="#f9e109"/><path d="m31.6419355 48.2580645c-4.4625-.0017137-8.6199597-2.2646674-11.0444305-6.0108367-2.4244708-3.7465978-2.7852066-8.4661542-.9588205-12.5379284-3.71875 2.1905493-5.8827369 6.2923135-5.5914063 10.5984375.2913307 4.3056955 2.9882813 8.0788558 6.9679436 9.7484375 3.9800908 1.6695817 8.5612651.9498236 11.8374495-1.859375-.3945816.0612651-.7981602.0612651-1.2107358.0612651z" fill="#fcbc04"/><path d="m35.2601492 39.483871c0 5.3905338-4.3696154 9.7601492-9.7601492 9.7601492s-9.7601492-4.3696154-9.7601492-9.7601492 4.3696154-9.7601493 9.7601492-9.7601493 9.7601492 4.3696155 9.7601492 9.7601493z" fill="#e59730"/><path d="m25.5 38.3994099c-1.1977788 0-2.168922-.9711432-2.168922-2.168922s.9711432-2.1689221 2.168922-2.1689221 2.168922.9711433 2.168922 2.1689221c0 .5988894.4855717 1.084461 1.0844611 1.084461s1.084461-.4855716 1.084461-1.084461c-.0063543-1.972999-1.3433972-3.6928864-3.2533831-4.1858713v-2.3208949c0-.5988894-.4855716-1.084461-1.084461-1.084461s-1.084461.4855716-1.084461 1.084461v2.3208949c-2.0884347.5671181-3.4397748 2.5867149-3.1665415 4.733397.2732334 2.1472116 2.0868461 3.7643718 4.2510025 3.7903184 1.1977788 0 2.168922.9711432 2.168922 2.168922s-.9711432 2.1689221-2.168922 2.1689221-2.168922-.9711433-2.168922-2.1689221c0-.5988894-.4855717-1.084461-1.0844611-1.084461s-1.084461.4855716-1.084461 1.084461c.0063543 1.972999 1.3433972 3.6928864 3.2533831 4.1858713v2.3208949c0 .5988894.4855716 1.084461 1.084461 1.084461s1.084461-.4855716 1.084461-1.084461v-2.3208949c2.0884347-.5671181 3.4397748-2.5867149 3.1665415-4.7333969-.2732334-2.1472117-2.0868461-3.7643719-4.2510025-3.7903185z" fill="#f9e109"/><path d="m16.2548387 22.8129032v-14.03870965h5.2645161l-10.5290322-8.77419355-10.52903228 8.77419355h5.26451613v14.03870965" fill="#4891d3" transform="translate(14.509677)"/><path d="m30.7645161 20.6017893v-11.82759575h5.2645162l-10.5290323-8.77419355v10.5290323c.0025706 4.016507 1.968624 7.7776713 5.2645161 10.072757z" fill="#57b7eb"/></g></svg>

<?xml version="1.0" encoding="UTF-8"?>
<svg width="51px" height="54px" viewBox="0 0 51 54" version="1.1" xmlns="http://www.w3.org/2000/svg" xmlns:xlink="http://www.w3.org/1999/xlink">
    <!-- Generator: Sketch 52.2 (67145) - http://www.bohemiancoding.com/sketch -->
    <title>growth</title>
    <desc>Created with Sketch.</desc>
    <g id="Page-1" stroke="none" stroke-width="1" fill="none" fill-rule="evenodd">
        <g id="offer" transform="translate(-498.000000, -8231.000000)">
            <g id="growth" transform="translate(498.000000, 8231.000000)">
                <path d="M42.1709677,38.6064516 L42.1709677,21.9354839 C42.1709677,21.4509324 42.5638357,21.0580645 43.0483871,21.0580645 L45.6806452,21.0580645 L45.6806452,24.5677419 L50.9451613,18.4258065 L45.6806452,12.283871 L45.6806452,15.7935484 L39.5387097,15.7935484 C37.600504,15.7935484 36.0290323,17.3650202 36.0290323,19.3032258 L36.0290323,38.6064516" id="Path" fill="#57B7EB"></path>
                <path d="M50.1907006,19.3032258 L44.8032258,19.3032258 C42.0814264,19.3040826 39.4500252,18.3259829 37.3888609,16.548009 C36.5362903,17.2086442 36.0350303,18.224874 36.0290323,19.3032258 L36.0290323,38.6064516 L42.1709677,38.6064516 L42.1709677,21.9354839 C42.1709677,21.4509324 42.5638357,21.0580645 43.0483871,21.0580645 L45.6806452,21.0580645 L45.6806452,24.5677419 L50.1907006,19.3032258 Z" id="Path" fill="#4891D3"></path>
                <path d="M8.82903226,38.6064516 L8.82903226,21.9354839 C8.82903226,21.4509324 8.43616434,21.0580645 7.9516129,21.0580645 L5.31935484,21.0580645 L5.31935484,24.5677419 L0.0548387097,18.4258065 L5.31935484,12.283871 L5.31935484,15.7935484 L11.4612903,15.7935484 C13.399496,15.7935484 14.9709677,17.3650202 14.9709677,19.3032258 L14.9709677,38.6064516" id="Path" fill="#57B7EB"></path>
                <path d="M1.80967742,16.3989163 L0.0548387097,18.4258065 L5.31935484,24.5677419 L5.31935484,21.0580645 L7.9516129,21.0580645 C8.43616434,21.0580645 8.82903226,21.4509324 8.82903226,21.9354839 L8.82903226,38.6064516 L14.9709677,38.6064516 L14.9709677,19.3032258 L9.70645161,19.3032258 C6.81328128,19.3019405 4.01436486,18.2724294 1.80967742,16.3989163 Z" id="Path" fill="#4891D3"></path>
                <path d="M39.5979933,39.483871 C39.5979933,47.2699622 33.2860913,53.5818643 25.5,53.5818643 C17.7139087,53.5818643 11.4020067,47.2699622 11.4020067,39.483871 C11.4020067,31.6977797 17.7139087,25.3858776 25.5,25.3858776 C33.2860913,25.3858776 39.5979933,31.6977797 39.5979933,39.483871 Z" id="Path" fill="#F9E109"></path>
                <path d="M31.6419355,48.2580645 C27.1794355,48.2563508 23.0219758,45.9933971 20.597505,42.2472278 C18.1730342,38.50063 17.8122984,33.7810736 19.6386845,29.7092994 C15.9199345,31.8998487 13.7559476,36.0016129 14.0472782,40.3077369 C14.3386089,44.6134324 17.0355595,48.3865927 21.0152218,50.0561744 C24.9953126,51.7257561 29.5764869,51.005998 32.8526713,48.1967994 C32.4580897,48.2580645 32.0545111,48.2580645 31.6419355,48.2580645 Z" id="Path" fill="#FCBC04"></path>
                <path d="M35.2601492,39.483871 C35.2601492,44.8744048 30.8905338,49.2440202 25.5,49.2440202 C20.1094662,49.2440202 15.7398508,44.8744048 15.7398508,39.483871 C15.7398508,34.0933372 20.1094662,29.7237217 25.5,29.7237217 C30.8905338,29.7237217 35.2601492,34.0933372 35.2601492,39.483871 Z" id="Path" fill="#E59730"></path>
                <path d="M25.5,38.3994099 C24.3022212,38.3994099 23.331078,37.4282667 23.331078,36.2304879 C23.331078,35.0327091 24.3022212,34.0615658 25.5,34.0615658 C26.6977788,34.0615658 27.668922,35.0327091 27.668922,36.2304879 C27.668922,36.8293773 28.1544937,37.3149489 28.7533831,37.3149489 C29.3522725,37.3149489 29.8378441,36.8293773 29.8378441,36.2304879 C29.8314898,34.2574889 28.4944469,32.5376015 26.584461,32.0446166 L26.584461,29.7237217 C26.584461,29.1248323 26.0988894,28.6392607 25.5,28.6392607 C24.9011106,28.6392607 24.415539,29.1248323 24.415539,29.7237217 L24.415539,32.0446166 C22.3271043,32.6117347 20.9757642,34.6313315 21.2489975,36.7780136 C21.5222309,38.9252252 23.3358436,40.5423854 25.5,40.568332 C26.6977788,40.568332 27.668922,41.5394752 27.668922,42.737254 C27.668922,43.9350328 26.6977788,44.9061761 25.5,44.9061761 C24.3022212,44.9061761 23.331078,43.9350328 23.331078,42.737254 C23.331078,42.1383646 22.8455063,41.652793 22.2466169,41.652793 C21.6477275,41.652793 21.1621559,42.1383646 21.1621559,42.737254 C21.1685102,44.710253 22.5055531,46.4301404 24.415539,46.9231253 L24.415539,49.2440202 C24.415539,49.8429096 24.9011106,50.3284812 25.5,50.3284812 C26.0988894,50.3284812 26.584461,49.8429096 26.584461,49.2440202 L26.584461,46.9231253 C28.6728957,46.3560072 30.0242358,44.3364104 29.7510025,42.1897284 C29.4777691,40.0425167 27.6641564,38.4253565 25.5,38.3994099 Z" id="Path" fill="#F9E109"></path>
                <g id="Group" transform="translate(14.509677, 0.000000)" fill="#4891D3">
                    <polyline id="Path" points="16.2548387 22.8129032 16.2548387 8.77419355 21.5193548 8.77419355 10.9903226 0 0.461290323 8.77419355 5.72580645 8.77419355 5.72580645 22.8129032"></polyline>
                </g>
                <path d="M30.7645161,20.6017893 L30.7645161,8.77419355 L36.0290323,8.77419355 L25.5,0 L25.5,10.5290323 C25.5025706,14.5455393 27.468624,18.3067036 30.7645161,20.6017893 Z" id="Path" fill="#57B7EB"></path>
            </g>
        </g>
    </g>
</svg>
